!!!COM: Anthoni van Noordt
!!!OTL: Fantasia
!!!OMV: 
!!!SCT: 
!!!SCA: 
**kern	**kern	**kern	**kern
*MM120	*MM120	*MM120	*MM120
*C:ion	*C:ion	*C:ion	*C:ion
*clefF4	*clefF4	*clefG2	*clefG2
*k[]	*k[]	*k[]	*k[]
*M2/2	*M2/2	*M2/2	*M2/2
*tb32	*tb32	*tb32	*tb32
=1	=1	=1	=1
1r	1r	2r	1r
.	.	2c	.
=2	=2	=2	=2
1r	1r	4B	1r
.	.	4e	.
.	.	8d	.
.	.	8c	.
.	.	8B	.
.	.	8A	.
=3	=3	=3	=3
1r	1r	4G	2r
.	.	4A	.
.	.	4B	2g
.	.	4G	.
=4	=4	=4	=4
1r	1r	2c	4e
.	.	.	4a
.	.	2B	8g
.	.	.	8f
.	.	.	8e
.	.	.	8d
=5	=5	=5	=5
2r	1r	2A	4c
.	.	.	4d
2C	.	[2G	4e
.	.	.	4c
=6	=6	=6	=6
4BB	1r	4G]	2g
4E	.	4G	.
8D	.	2A	2f
8C	.	.	.
8BB	.	.	.
8AA	.	.	.
=7	=7	=7	=7
4GG	2r	2.B	2e
4AA	.	.	.
4BB	2G	.	4d
4GG	.	4B	4g
=8	=8	=8	=8
2C	4E	2c	8g
.	.	.	8f
.	4A	.	8e
.	.	.	8f
2BB	8G	4d	[2g
.	8F	.	.
.	8E	4G	.
.	8D	.	.
=9	=9	=9	=9
2.AA	4C	4A	4g]
.	4D	4B	4f
.	4E	4.c	4e
4AA	4C	.	[4f
.	.	8A	.
=10	=10	=10	=10
4GG	2G	4B	8f]
.	.	.	8d
4C	.	8c	4e
.	.	8B	.
2D	2F	4A	4f
.	.	4B	4g
=11	=11	=11	=11
4C	2.E	4c	4a
4BB	.	4d	4b
8AA	.	2e	2cc
8BB	.	.	.
8C	4A	.	.
8D	.	.	.
=12	=12	=12	=12
2.E	4G	2r	1b
.	4A	.	.
.	2B	2g	.
4D	.	.	.
=13	=13	=13	=13
4.C	2c	4e	1r
.	.	4a	.
8D	.	.	.
2E	4B	8g	.
.	.	8f	.
.	8c	8e	.
.	8B	8d	.
=14	=14	=14	=14
4F	4A	4c	2r
8E	4B	4d	.
8D	.	.	.
4C	4c	4e	2cc
4D	8B	4f#	.
.	8A	.	.
=15	=15	=15	=15
4E	4G	2g	4b
8D	4A	.	4ee
8C	.	.	.
2G	2B	4r	8dd
.	.	.	8cc
.	.	4d	8b
.	.	.	8a
=16	=16	=16	=16
2r	4c	4e	4g
.	8B	4f#	4a
.	8A	.	.
2G	4d	[2g	4b
.	8c	.	[4ee
.	8B	.	.
=17	=17	=17	=17
4E	4c	4g]	8ee]
.	.	.	8ee
4A	4c	4f#	8dd
.	.	.	8cc
8G	4d	4.g	4b
8F	.	.	.
8E	4G	.	[4cc
8D	.	8f	.
=18	=18	=18	=18
4C	2r	8e	8cc]
.	.	8d	8b
4F	.	8c	8a
.	.	8d	8b
4E	2c	8e	8cc
.	.	8f	8dd
4C	.	4g	4ee
=19	=19	=19	=19
1G	4B	2r	4dd
.	4e	.	4cc
.	8d	4r	2b
.	8c	.	.
.	8B	[4d	.
.	8A	.	.
=20	=20	=20	=20
1r	[2G	8d]	2r
.	.	8c	.
.	.	8B	.
.	.	8A	.
.	8G]	2B	2g
.	8F	.	.
.	8E	.	.
.	8D	.	.
=21	=21	=21	=21
1r	4.C	2c	4e
.	.	.	4a
.	8D	.	.
.	2E	4B	8g
.	.	.	8f
.	.	8c	8e
.	.	8B	8d
=22	=22	=22	=22
2r	2F	8A	4.c
.	.	8G	.
.	.	8A	.
.	.	8B	8d
2C	[2G	4c	8e
.	.	.	8d
.	.	4c	8e
.	.	.	8f
=23	=23	=23	=23
4BB	4G]	8d	4.g
.	.	16e	.
.	.	16d	.
4E	4G	4c#	.
.	.	.	16a
.	.	.	16g
8D	4A	4.d	8f#
8C	.	.	8e
8BB	4D	.	4f#
8AA	.	8c	.
=24	=24	=24	=24
4GG	2r	4B	1g
4.C	.	4e	.
.	2G	4.d	.
8C	.	.	.
4BB	.	.	.
.	.	8d	.
=25	=25	=25	=25
4C	4E	2c	4r
4AA	4A	.	4f
2BB	8G	2r	4d
.	8F	.	.
.	8E	.	4g
.	8D	.	.
=26	=26	=26	=26
2AA	4C	2r	4a
.	4BB	.	8g
.	.	.	8f
2r	4C	2c	4e
.	4D	.	4a
=27	=27	=27	=27
1r	4E	4B	4.g
.	4C	4e	.
.	.	.	8a
.	4D	8d	2f#
.	.	8c	.
.	4D	8B	.
.	.	8A	.
=28	=28	=28	=28
1r	4.E	4G	2g
.	.	4.c	.
.	8F	.	.
.	2G	.	4r
.	.	8c	.
.	.	4B	4dd
=29	=29	=29	=29
1r	4A	4c	4cc
.	4B	4d	8b
.	.	.	8a
.	4c	4e	4g
.	8B	4f#	4a
.	8A	.	.
=30	=30	=30	=30
1r	2.G	4g	2.b
.	.	8f	.
.	.	8e	.
.	.	4d	.
.	8F	4e	4cc
.	8E	.	.
=31	=31	=31	=31
4r	4D	2.f	4dd
4AA	4E	.	8cc
.	.	.	8b
4D	4F	.	[2a
8C	4G	8e	.
8BB	.	8d	.
=32	=32	=32	=32
4AA	2.A	4c	4a]
4BB	.	4d	8g
.	.	.	8f
[2C	.	[2e	4e
.	8G	.	4f
.	8F	.	.
=33	=33	=33	=33
4C]	4E	4e]	2.g
8BB	4F#	8d	.
8AA	.	8c	.
2GG	2G	4B	.
.	.	4A	8f
.	.	.	8e
=34	=34	=34	=34
4G	2r	4B	4d
8F	.	4c	4e
8E	.	.	.
4D	[2A	4d	4f
8C	.	8e	4g
8BB	.	8d	.
=35	=35	=35	=35
4AA	4A]	4c	2.a
4BB	8G	4d	.
.	8F	.	.
[2C	4E	4e	.
.	4F	4d	8g
.	.	.	8f
=36	=36	=36	=36
8C]	2G	2c	2e
8BB	.	.	.
8AA	.	.	.
8GG	.	.	.
2FF	2A	8.d	[2f
.	.	16e	.
.	.	8.c	.
.	.	16d	.
=37	=37	=37	=37
1GG	1G	4B	8.f]
.	.	.	16g
.	.	4.c	8.e
.	.	.	16f
.	.	.	2d
.	.	8c	.
.	.	4B	.
=38	=38	=38	=38
1C	2r	1c	2e
.	8E	.	2g
.	8F	.	.
.	8G	.	.
.	8E	.	.
=39	=39	=39	=39
1r	4A	1r	4e
.	4F	.	4a
.	4.c	.	8g
.	.	.	8f
.	.	.	8e
.	8B	.	8d
=40	=40	=40	=40
1r	8A	1r	4c
.	8G	.	.
.	4F	.	4cc
.	2G	.	8b
.	.	.	8a
.	.	.	8g
.	.	.	8f
=41	=41	=41	=41
2r	2A	2r	4e
.	.	.	4d
8AA	2A	2c	4e
8BB	.	.	.
8C	.	.	4f#
8AA	.	.	.
=42	=42	=42	=42
4E	2G	4B	4.g
4C	.	4e	.
.	.	.	8a
4.G	2r	8d	4.b
.	.	8c	.
.	.	8B	.
8F	.	8A	8b
=43	=43	=43	=43
8E	1r	4G	8cc
8D	.	.	8dd
4C	.	4g	4ee
2D	.	8f	8dd
.	.	8e	8cc
.	.	8d	8b
.	.	8c	8a
=44	=44	=44	=44
4E	2r	[2B	1g
8D	.	.	.
8C	.	.	.
4BB	2G	8B]	.
.	.	8c	.
4GG	.	8d	.
.	.	8B	.
=45	=45	=45	=45
4C	4E	4e	1r
4AA	4A	4c	.
2BB	8G	4.d	.
.	8F	.	.
.	8E	.	.
.	8D	8d	.
=46	=46	=46	=46
8AA	4C	4e	1r
8GG	.	.	.
4AA	4c	4f#	.
2E	8B	4.g	.
.	8A	.	.
.	8G	.	.
.	8F	8a	.
=47	=47	=47	=47
2r	4E	8g	2r
.	.	16a	.
.	.	16g	.
.	8A	8f	.
.	8B	16g	.
.	.	16f	.
2C	2c	4e	8a
.	.	.	8b
.	.	4e	8cc
.	.	.	8a
=48	=48	=48	=48
4BB	2G	4d	4dd
4E	.	4B	4g
8D	2A	4.d	2f#
8C	.	.	.
8BB	.	.	.
8AA	.	8c	.
=49	=49	=49	=49
4GG	2B	8d	2g
.	.	8c	.
4G	.	8d	.
.	.	8e	.
8F	4c	4f	2a
8E	.	.	.
8D	[4d	4f#	.
8C	.	.	.
=50	=50	=50	=50
4BB	8d]	2g	4.g
.	8c	.	.
8E	4B	.	.
8D	.	.	8f
8C	4.c	2r	4e
8BB	.	.	.
8AA	.	.	8f
8GG	8B	.	8g
=51	=51	=51	=51
8FF	4c	1r	4a
8F	.	.	.
8E	4d	.	4b
8D	.	.	.
8C	4e	.	8cc
8D	.	.	8b
8E	[4e	.	8g
8F	.	.	8a
=52	=52	=52	=52
2G	8e]	1r	4b
.	8d	.	.
.	8B	.	4.dd
.	8c	.	.
2F	8d	.	.
.	8A	.	8cc
.	8c	.	8a
.	8d	.	8b
=53	=53	=53	=53
2E	4G	1r	16cc
.	.	.	16dd
.	.	.	16b
.	.	.	16cc
.	2c	.	16a
.	.	.	16b
.	.	.	16g
.	.	.	16a
2D	.	.	16f
.	.	.	16g
.	.	.	16e
.	.	.	16f
.	4B	.	16d
.	.	.	16e
.	.	.	16f
.	.	.	16g
=54	=54	=54	=54
4C	2c	2r	4e
4AA	.	.	4e
4D	2r	4r	4f
4BB	.	4d	4f#
=55	=55	=55	=55
4E	1r	4B	4g
4E	.	4e	4g#
4F	.	8d	4a
.	.	8c	.
4F#	.	8B	[4dd
.	.	8A	.
=56	=56	=56	=56
4G	1r	8G	8dd]
.	.	8A	8cc
4G#	.	4B	8b
.	.	.	8dd
4.A	.	8e	8cc
.	.	8d	8b
.	.	[4c	[4a
8G	.	.	.
=57	=57	=57	=57
4F	1r	8c]	8a]
.	.	8B	8g
8E	.	8c	8a
8D	.	8d	8b
8C	.	4.e	8cc
8D	.	.	8b
[4E	.	.	[4g
.	.	8c	.
=58	=58	=58	=58
8E]	2r	4B	8g]
8D	.	.	8f
8C	.	4c	4.e
8BB	.	.	.
2AA	4r	4.c	.
.	.	.	8e
.	4E	.	8a
.	.	8B	8g
=59	=59	=59	=59
4r	4F	4.A	8f
.	.	.	8e
4D	4F#	.	4.d
.	.	8A	.
4BB	4G	4.B	.
.	.	.	8d
4E	4G#	.	4e
.	.	8c#	.
=60	=60	=60	=60
8D	4.A	2d	4f
8C	.	.	.
8BB	.	.	4f#
8AA	8A	.	.
8GG	8B	2r	4g
8AA	8c	.	.
4BB	4d	.	4g#
=61	=61	=61	=61
4AA	2c	4r	8a
.	.	.	8g
4F	.	4A	8f
.	.	.	8e
8G	2r	4B-	4d
8F	.	.	.
8E	.	4B	8g
8D	.	.	8f
=62	=62	=62	=62
8C	2r	4c	4e
8BB	.	.	.
4AA	.	4c#	4a
2GG	4r	4.d	4b-
.	4G	.	4b
.	.	8d	.
=63	=63	=63	=63
4r	4E	8g	4cc
.	.	8f	.
4AA	4A	4e	4cc#
4BB-	8G	[2g	4.dd
.	8F	.	.
4BB	8E	.	.
.	8D	.	8dd
=64	=64	=64	=64
4C	8C	4g]	4ee
.	8D	.	.
4C#	4E	4g	4ee
4D	2A	8.f	2dd
.	.	16e	.
4D	.	8f	.
.	.	8g	.
=65	=65	=65	=65
4F	4r	[4a	4cc
4F#	4A	16a]	4r
.	.	16g	.
.	.	16f#	.
.	.	16e	.
[4G	4B-	2d	4r
16G]	4B	.	4g
16F	.	.	.
16E	.	.	.
16D	.	.	.
=66	=66	=66	=66
4C	4c	1r	4e
4AA	4c#	.	4a
4BB	4d	.	8g
.	.	.	8f
8G	4B	.	8e
8F	.	.	8d
=67	=67	=67	=67
8E	8c	1r	8c
8D	8B	.	8d
8C	4.c	.	4e
8BB	.	.	.
4AA	.	.	[2a
.	16d	.	.
.	16e	.	.
4D	16f	.	.
.	16e	.	.
.	16d	.	.
.	16c	.	.
=68	=68	=68	=68
[2E	8B	2r	4a]
.	8A	.	.
.	8B	.	4g
.	8G	.	.
8E]	[2c	4.e	2g
8D	.	.	.
8E	.	.	.
8C	.	8e	.
=69	=69	=69	=69
2.D	8c]	4.d	4f#
.	8d	.	.
.	8B	.	4.g
.	8c	8e	.
.	8A	4.d	.
.	8G	.	8a
4D	4A	.	4f#
.	.	8c	.
=70	=70	=70	=70
2.GG	4G	1B	1g
.	4d	.	.
.	4B	.	.
4AA	4e	.	.
=71	=71	=71	=71
2BB	8d	4r	1r
.	8c	.	.
.	8B	4g	.
.	8A	.	.
4.C	4G	4e	.
.	4c	4a	.
8D	.	.	.
=72	=72	=72	=72
2E	4B	8g	2r
.	.	8f	.
.	8c	8e	.
.	8B	8d	.
4F	4A	4c	4r
4D	4A	4f	4dd
=73	=73	=73	=73
4E	4.G	2g.	4b
4C	.	.	4ee
.	8A	.	.
4r	2B	.	8dd
.	.	.	8cc
4G	.	4d	8b
.	.	.	8a
=74	=74	=74	=74
4E	2c	4.e	4g
4A	.	.	4cc
.	.	8f#	.
8G	4d	4.g	4b
8F	.	.	.
8E	4G	.	[4cc
8D	.	8f	.
=75	=75	=75	=75
4C	4.c	4e	8cc]
.	.	.	8b
4.F	.	4f	4.a
.	8B	.	.
.	4.A	4c	.
8E	.	.	8g
4D	.	[4d	[4f
.	8G	.	.
=76	=76	=76	=76
1r	4.F	8d]	8f]
.	.	8e	8g
.	.	2f	4.a
.	8E	.	.
.	8D	.	.
.	8C	.	8a
.	4D	4f	4b
=77	=77	=77	=77
1r	2C	4e	1cc
.	.	4g	.
.	4c	4e	.
.	4A	4a	.
=78	=78	=78	=78
1r	4B	8g	2r
.	.	8f	.
.	4G	8e	.
.	.	8d	.
.	4.A	8c	4r
.	.	8d	.
.	.	[4e	4cc
.	8A	.	.
=79	=79	=79	=79
1r	4G	8e]	4b
.	.	8f	.
.	8E	8g	4ee
.	8F	8a	.
.	8G	8b	8dd
.	8A	8a	8cc
.	4B	8g	8b
.	.	8f	8a
=80	=80	=80	=80
1r	2c	4e	8g
.	.	.	8cc
.	.	4e	8g
.	.	.	8a
.	4G	8d	4b
.	.	8g	.
.	4c	8e	[4ee
.	.	8f	.
=81	=81	=81	=81
1r	4B	4.g	8ee]
.	.	.	8dd
.	4e	.	4.cc
.	.	8g	.
.	8d	4f#	.
.	8c	.	8a
.	8B	4f#	8dd
.	8A	.	8cc
=82	=82	=82	=82
2r	2G	8g	8b
.	.	8d	8a
.	.	8g	4b
.	.	8f	.
4r	4c	4e	4a
4G	4B	4d	4g
=83	=83	=83	=83
4E	2c	4e	4g
4A	.	4c	4f#
8G	2B	2d	2g
8F	.	.	.
8E	.	.	.
8D	.	.	.
=84	=84	=84	=84
4C	4c	4e	4r
4BB	4G	4d	4g
4C	2r	4.c	4e
4AA	.	.	4a
.	.	8c	.
=85	=85	=85	=85
4E	1r	4B	8g
.	.	.	8f
4E	.	8c	8e
.	.	8B	8d
4F	.	4A	8c
.	.	.	8d
8C	.	4c	8e
8D	.	.	8f
=86	=86	=86	=86
8E	1r	4B	4.g
8F	.	.	.
4G	.	4e	.
.	.	.	8a
4G	.	8d	8b
.	.	8c	8cc
4F#	.	8B	[4dd
.	.	8A	.
=87	=87	=87	=87
4.G	1r	8G	8dd]
.	.	8A	8cc
.	.	4B	8b
8F	.	.	8a
8E	.	4.c	8g
8D	.	.	8f
[4C	.	.	[4e
.	.	8G	.
=88	=88	=88	=88
8C]	1r	4.c	8e]
8BB	.	.	8d
8AA	.	.	4e
8GG	.	8B	.
2FF	.	8A	4f
.	.	8B	.
.	.	8c	4e
.	.	8A	.
=89	=89	=89	=89
16GG	2r	4B	2d
16G	.	.	.
16F	.	.	.
16E	.	.	.
16D	.	2c	.
16C	.	.	.
16BB	.	.	.
16AA	.	.	.
8FF	4r	.	2d
8GG	.	.	.
4GG	4G	4B	.
=90	=90	=90	=90
2.C	4E	1c	4.c
.	4A	.	.
.	.	.	8d
.	8G	.	8e
.	8F	.	8f
4BB	8E	.	4g
.	8D	.	.
=91	=91	=91	=91
2AA	4.C	8r	2.a
.	.	8f	.
.	.	8e	.
.	8D	8d	.
2AA	4E	8c	.
.	.	8B	.
.	4F#	8A	4a
.	.	8c	.
=92	=92	=92	=92
2GG	4.G	2B	4d
.	.	.	4.g
.	8F	.	.
4GG	8E	2c	.
.	8D	.	8f
4C	8E	.	4e
.	8F	.	.
=93	=93	=93	=93
4BB	4.G	1r	8d
.	.	.	16e
.	.	.	16f
4E	.	.	4g
.	16A	.	.
.	16G	.	.
8D	2F#	.	8a
8C	.	.	8b
8BB	.	.	4cc
8AA	.	.	.
=94	=94	=94	=94
2GG	2G	8r	4b
.	.	8d	.
.	.	8B	4g
.	.	8e	.
2D	2r	8d	2f#
.	.	8c	.
.	.	8B	.
.	.	8A	.
=95	=95	=95	=95
8E	1r	4.G	2g
8C	.	.	.
8BB	.	.	.
8E	.	8G	.
8D	.	4F#	2a
8C	.	.	.
8BB	.	[4d	.
8AA	.	.	.
=96	=96	=96	=96
4GG	1r	4d]	8b
.	.	.	8g
4AA	.	4c	8e
.	.	.	8a
2BB	.	4d	8g
.	.	.	8f
.	.	8g	8e
.	.	8f	8d
=97	=97	=97	=97
2C	8r	8e	4c
.	8G	8d	.
.	8E	4c	8e
.	8A	.	8f
2r	8G	4B	4g
.	8F	.	.
.	8E	8c	8a
.	8D	8d	8b
=98	=98	=98	=98
1r	8C	8e	4.cc
.	8BB	8g	.
.	8C	8e	.
.	8D	8a	8cc
.	8E	8g	8b
.	8F	8f	8a
.	4G	8e	8g
.	.	8d	8f
=99	=99	=99	=99
1r	4A	4c	8e
.	.	.	8cc
.	2G	8d	8b
.	.	8c	8ee
.	.	8B	8dd
.	.	8e	8cc
.	4G	8d	8b
.	.	8c	8a
=100	=100	=100	=100
8r	1r	4B	8g
8G	.	.	8dd
8E	.	4c	4cc
8A	.	.	.
8G	.	4d	2b
8F	.	.	.
8E	.	8g	.
8D	.	8f	.
=101	=101	=101	=101
4C	8r	8e	4cc
.	8c	8a	.
4G	8B	2g	8dd
.	8e	.	8cc
4.G	8d	.	8b
.	8c	.	8a
.	8B	4d	[4g
8F	8A	.	.
=102	=102	=102	=102
8E	2G	2.c	8g]
8D	.	.	8f
8C	.	.	4.e
8BB	.	.	.
8AA	4A	.	.
8GG	.	.	8e
4FF	4A	8d	4f
.	.	8c	.
=103	=103	=103	=103
2.GG	[1G	4B	8d
.	.	.	8g
.	.	2c	8e
.	.	.	8a
.	.	.	8g
.	.	.	8f
4GG	.	4B	8e
.	.	.	8d
=104	=104	=104	=104
8C	2G]	1c	2e
8BB	.	.	.
8AA	.	.	.
8GG	.	.	.
8FF	[2A	.	[2f
8F	.	.	.
8E	.	.	.
8D	.	.	.
=105	=105	=105	=105
[1C	4A]	[1c	4f]
.	8G	.	8e
.	8A	.	8f
.	4G	.	4e
.	4F#	.	4d
=106	=106	=106	=106
1C;]	1G;	1c;]	1e;
==	==	==	==
*-	*-	*-	*-
!!!ENC: Peter van Kranenburg (peter@musical-style-recognition.net)
!!!END: 2020-01-24
